X: 4211
T: ORANGEMEN
R: Jig
%R: jig
B: James Kerr "Merry Melodies" v.4 p.24 #211
Z: 2016 John Chambers <jc:trillian.mit.edu>
M: 6/8
L: 1/8
K: G
|:\
B2D D2D | dcB AGA | B2D D2D | GAG FED |\
B2D D2D | dcB cde | dcB AGF | GAG FED :|
|:\
d2B d2B | dcB ABc | d2B d2B | ABA FED |\
d2B d2B | dcB ABc | dcB AGF | GAG FED :|

%%sep 1 1 500
%%sep 1 1 500

